X: 20733
T: Johnny Doherty's
R: jig
M: 6/8
K: Dmajor
FGA ABc|ded cAG|FGA BAB|=cBc A2G|
FGA ABc|ded cBA|~g3 bag|fdc d3:|
fed efg|afd cBA|FEF BAB|=cBc A2g|
fed efg|afd cBA|~g3 bag|fdc d3:|

